resources/svg/codepen-fill.svg

<svg fill="currentColor" viewBox="0 0 24 24" xmlns="http://www.w3.org/2000/svg"><path d="M12 10.2018L9.30278 12L12 13.7982L14.6972 12L12 10.2018ZM16.5 10.7982L19.1972 9L13 4.86852V8.46482L16.5 10.7982ZM20 10.8685L18.3028 12L20 13.1315V10.8685ZM16.5 13.2018L13 15.5352V19.1315L19.1972 15L16.5 13.2018ZM11 8.46482V4.86852L4.80278 9L7.5 10.7982L11 8.46482ZM4.80278 15L11 19.1315V15.5352L7.5 13.2018L4.80278 15ZM5.69722 12L4 10.8685V13.1315L5.69722 12ZM2 9C2 8.66565 2.1671 8.35342 2.4453 8.16795L11.4453 2.16795C11.7812 1.94402 12.2188 1.94402 12.5547 2.16795L21.5547 8.16795C21.8329 8.35342 22 8.66565 22 9V15C22 15.3344 21.8329 15.6466 21.5547 15.8321L12.5547 21.8321C12.2188 22.056 11.7812 22.056 11.4453 21.8321L2.4453 15.8321C2.1671 15.6466 2 15.3344 2 15V9Z"/></svg>

<svg xmlns="http://www.w3.org/2000/svg" viewBox="0 0 24 24" fill="currentColor">
    <g>
        <path fill="none" d="M0 0h24v24H0z"/>
        <path fill-rule="nonzero" d="M12 10.202L9.303 12 12 13.798 14.697 12 12 10.202zm4.5.596L19.197 9 13 4.869v3.596l3.5 2.333zm3.5.07L18.303 12 20 13.131V10.87zm-3.5 2.334L13 15.535v3.596L19.197 15 16.5 13.202zM11 8.465V4.869L4.803 9 7.5 10.798 11 8.465zM4.803 15L11 19.131v-3.596l-3.5-2.333L4.803 15zm.894-3L4 10.869v2.262L5.697 12zM2 9a1 1 0 0 1 .445-.832l9-6a1 1 0 0 1 1.11 0l9 6A1 1 0 0 1 22 9v6a1 1 0 0 1-.445.832l-9 6a1 1 0 0 1-1.11 0l-9-6A1 1 0 0 1 2 15V9z"/>
    </g>
</svg>
